X: 28182
T: Mrs Stewart Nicholson
R: strathspey
M: 4/4
K: Fdorian
B2|:G>F EG C<CF2|E/D/C/B,/ B,C/D/ EG Be|G>F EG C<CF2|1 E/D/C/B,/ B,C/D/ E2B>A:|2 E/D/C/B,/ B,C/D/ E2EC||
Be ef/g/c2ce|d>c Bc/d/ e/f/g/a/ b>e|Be ef/g/ f<c c>f|d>c B/c/d/B/ e2e>c|
Be ef/g/c2ce|d>c Bc/d/ e/f/g/a/ b>e|B<e e>Bc2G>F|E/D/C/B,/ B,C/D/ E2||

